symbols/web/aspect_ratio/materialsymbolssharp/aspect_ratio_wght600_20px.svg

<svg xmlns="http://www.w3.org/2000/svg" height="20" width="20"><path d="M4.333 10.208h1.75V7.75h2.479V6H4.333Zm7.125 3.813h4.209V9.812h-1.75v2.459h-2.459Zm7.271 3.041H1.271V2.938h17.458ZM3.562 14.771V5.229Zm0 0h12.876V5.229H3.562Z"/></svg>

<svg xmlns="http://www.w3.org/2000/svg" height="20" width="20"><path d="M4.333 10.208H6.083V7.75H8.562V6H4.333ZM11.458 14.021H15.667V9.812H13.917V12.271H11.458ZM18.729 17.062H1.271V2.938H18.729ZM3.562 14.771V5.229ZM3.562 14.771H16.438V5.229H3.562Z"/></svg>
